X:1
T:Soon Will Our Savior from Heaven Appear
T:Robert Harkness
T:Soon Will Our Savior from Heaven Appear
T:Public Domain
T:Public Domain
T:Public Domain
C:Robert Harkness
Z:Public Domain
%%score ( 1 2 ) ( 3 4 )
L:1/8
M:9/8
K:Db
V:1 treble 
V:2 treble 
V:3 bass 
V:4 bass 
V:1
 [FA][FB][Fd] | [Gc]3 [EG]2 [EG] [EG][GB][Gc] | [FA]6 [DF][DE]D | [FA]3 [FB]2 [Fd] [=GB][Gc][Gd] | %4
w: 1.~Soon will our|Sav- ior from hea- ven ap-|pear, Sweet is the|and its pow- er to cheer;|
w: 2.~Lone- li- ness|changed to re- un- ion com-|plete, Ab- sence ex-|for a place at His feet,|
w: 3.~Sun- rise will|chase all the dark- ness a-|way, Night will be|to the bright- ness of day,|
w: 4.~Weak- ness will|change to mag- ni- fi- cent|strength, Fail- ure will|to per- fect- ion at length,|
 [Gc]6 [Fd][Fc][FB] | [Gc]3 [EG]2 [EG] [EG][GB][Gc] | [FA]6 [GB][Gc][Ad] | %7
w: All will be changed|by a glimpse of His face;|This is the goal|
w: Sleep- ing ones raised|in a mo- ment of time,|Liv- ing ones changed|
w: Tem- pests will change|to in- ef- fa- ble calm,|Weep- ing will change|
w: Sor- row will change|to un- end- ing de- light,|Walk- ing by faith|
 [Af]3 [Ge]2 [Fd] [GB][Ge][Gc] | [Fd]6 ||"^Refrain" [Fd][Fc]>[FB] | [Gc]4- [Gc][GB] [FA]>[=E=G] | %11
w: at the end of our race.||||
w: to His im- age sub- lime.|Oh,|what a change!|Oh, * what a change!|
w: to a jub- i- lant psalm.||||
w: change to walk- ing by sight.||||
 [FA]4- [FA][DF] [CG]>[DA] | [GB]4- [GB][GB] [=GB][Gc][Gd] | [Gc]4- [Gc][Fd] [Gc]>[GB] | %14
w: |||
w: When * I shall see|His * won- der- ful face!|Oh, * what a change!|
w: |||
w: |||
 [Gc]4- [Gc][GB] [FA]>[=E=G] | [FA]4- [FA][GB] [Gc][Ad] | [Af]6 [Gea]3 | [Fd]4- [Fd] |] %18
w: ||||
w: Oh, * what a change!|When * I shall see|His face!||
w: ||||
w: ||||
V:2
 x3 | x9 | x8 D | x9 | x9 | x9 | x9 | x9 | x6 || x3 | x8 | x8 | x9 | x8 | x8 | x8 | x9 | x5 |] %18
w: ||hope||||||||||||||||
w: ||changed||||||||||||||||
w: ||changed||||||||||||||||
w: ||change||||||||||||||||
V:3
 [D,A,][D,A,][D,A,] | [E,A,]3 [A,C]2 [A,C] [A,C][A,E][A,E] | [D,D]6 [D,A,][D,G,][D,F,] | %3
w: ~ ~ ~|~ ~ ~ ~ ~ ~|~ ~ ~ ~|
 [D,D]3 [D,D]2 [D,B,] [E,D][E,C][E,B,] | [A,E]6 [D,A,][D,A,][D,A,] | %5
w: ~ ~ ~ ~ ~ ~|~ ~ ~ ~|
 [E,A,]3 [A,C]2 [A,C] [A,C][A,E][A,E] | [D,D]6 [G,D][E,A,][F,D] | %7
w: ~ ~ ~ ~ ~ ~|~ ~ ~ ~|
 [A,D]3 [A,C]2 [B,D] [G,D][G,B,]A, | [D,A,]6 || z3 | z [A,E][A,E]>[A,E][A,E] z z2 | %11
w: ~ ~ ~ ~ ~ ~|Oh,||what a change, Oh,|
 z [D,D][D,D]>[D,D][D,D][D,A,] [E,A,]>[F,D] | [G,D]4- [G,D][G,D] [E,D][E,C][E,B,] | %13
w: what a change, ~ ~ ~ ~|~ * ~ ~ ~ ~|
 [A,,A,-]4 [A,,A,] z z2 | z [A,E][A,E]>[A,E][A,E] z z2 | %15
w: Oh, *|what a change, Oh,|
 z [D,D][D,D]>[D,D][D,D][G,D] [E,A,][F,A,] | [A,D]6 [A,,A,]3 | [D,A,]4- [D,A,] |] %18
w: what a change, * * * *|||
V:4
 x3 | x9 | x9 | x9 | x9 | x9 | x9 | x8 A, | x6 || x3 | x8 | x8 | x9 | x8 | x8 | x8 | x9 | x5 |] %18
w: |||||||~|||||||||||

